X: 1
T:Sturgeon Eggs P.B.
M:C|
L:1/8
Q:80
C:Michael J. Evans '93
S:Hornpipe
K:HP
|: d/2e/2|
{gefe}f/2{e}f/2{g}f/2e/2{gdedc}d{g}d/2B/2|
{gAGAG}A{g}A/2d/2{g}f/2A/2{g}d/2f/2|  !
{g}G/2{d}A/2g/2{a}f/2g/2B/2g/2B/2|
{gcecG}c{g}c/2d/2{g}e/2a/2g/2e/2|
{gefe}f/2{e}f/2{g}f/2e/2{gdedc}d{g}d/2B/2|  !
{gAGAG}A{g}A/2d/2{g}f/2A/2{g}d/2f/2|
{g}G/2{d}A/2g/2{a}f/2g/2B/2g/2B/2|
{gcecG}c{g}c/2e/2{Gdc}d:| |:  !
f|
{g}A/2f/2{e}f/2B/2{G}B/2a/2c/2e/2|
{gdedc}d{g}d/2e/2{g}f/2A/2{g}d/2f/2|
{g}G/2{d}A/2g/2{a}f/2g/2B/2g/2B/2|  !
{gcecG}c{g}c/2d/2{g}e/2a/2g/2e/2|
{g}A/2f/2{e}f/2B/2{G}B/2a/2c/2e/2|
{gdedc}d{g}d/2e/2{g}f/2A/2{g}d/2f/2|  !
{g}G/2{d}A/2g/2{a}f/2g/2B/2g/2B/2|
{gcecG}c{g}c/2e/2{Gdc}d:| |:
g|  !
{a}f/2a/2d/2f/2{g}e/2g/2{a}c/2d/2|
-d/2f/2{g}B/2d/2{g}c/2e/2A/2{g}G/2|
-G/2{d}A/2g/2{a}f/2g/2B/2g/2B/2|  !
{gcecG}c{g}c/2d/2{g}e/2a/2g/2e/2|
{g}f/2a/2d/2f/2{g}e/2g/2{a}c/2d/2|
-d/2f/2{g}B/2d/2{g}c/2e/2A/2{g}G/2|  !
-G/2{d}A/2g/2{a}f/2g/2B/2g/2B/2|
{gcecG}c{g}c/2e/2{Gdc}d:| |:
{g}d/2e/2|  !
{gefe}fg/2{a}f/2g/2f/2{g}e/2d/2|
{gdedc}d{g}d/2c/2{g}d/2c/2{g}B/2A/2|
{g}G/2{d}A/2g/2{a}f/2g/2B/2g/2B/2|  !
{gcecG}c{g}c/2d/2{g}e/2a/2g/2e/2|1
{gefe}fg/2{a}f/2g/2f/2{g}e/2d/2|
{gdedc}d{g}d/2c/2{g}d/2c/2{g}B/2A/2|  !
{g}G/2{d}A/2g/2{a}f/2g/2B/2g/2B/2|
{gcecG}c{g}c/2e/2{Gdc}d:|2
{g}f/2a/2{g}a/2d/2{g}e/2g/2{a}c/2d/2|  !
{g}f/2B/2{d}c/2e/2{g}A/2{d}B/2{g}d/2B/2|
{g}G/2{d}A/2g/2{a}f/2g/2B/2g/2B/2|
{gcecG}c{g}c/2e/2{Gdc}d|]  !
